img/hole.svg

<svg fill="none" height="21" viewBox="0 0 70 21" width="70" xmlns="http://www.w3.org/2000/svg" xmlns:xlink="http://www.w3.org/1999/xlink"><filter id="a" color-interpolation-filters="sRGB" filterUnits="userSpaceOnUse" height="23" width="70" x="0" y="0"><feFlood flood-opacity="0" result="BackgroundImageFix"/><feBlend in="SourceGraphic" in2="BackgroundImageFix" mode="normal" result="shape"/><feColorMatrix in="SourceAlpha" result="hardAlpha" type="matrix" values="0 0 0 0 0 0 0 0 0 0 0 0 0 0 0 0 0 0 127 0"/><feOffset dy="2"/><feGaussianBlur stdDeviation="2.5"/><feComposite in2="hardAlpha" k2="-1" k3="1" operator="arithmetic"/><feColorMatrix type="matrix" values="0 0 0 0 0 0 0 0 0 0 0 0 0 0 0 0 0 0 0.07 0"/><feBlend in2="shape" mode="normal" result="effect1_innerShadow_15110_45966"/></filter><g filter="url(#a)"><path d="m70 14.5c0-3.6-2.7-6.5-6.1-6.5h-21.2c-.1-4.4-3.5-8-7.7-8s-7.5 3.6-7.7 8h-21.2c-3.4 0-6.1 2.9-6.1 6.5s2.7 6.5 6.1 6.5h57.8c3.4 0 6.1-2.9 6.1-6.5z" fill="#f2f2f2"/></g></svg>

<svg width="70" height="22" viewBox="0 0 70 22" fill="none" xmlns="http://www.w3.org/2000/svg">
<g filter="url(#filter0_di_190_35)">
<path d="M70 14.5C70 10.9 67.3 8 63.9 8H42.7C42.6 3.6 39.2 0 35 0C30.8 0 27.5 3.6 27.3 8H6.1C2.7 8 0 10.9 0 14.5C0 18.1 2.7 21 6.1 21H63.9C67.3 21 70 18.1 70 14.5Z" fill="white" fill-opacity="0.6" style="fill:white;fill-opacity:0.6;" shape-rendering="crispEdges"/>
</g>
<defs>
<filter id="filter0_di_190_35" x="0" y="0" width="71" height="23" filterUnits="userSpaceOnUse" color-interpolation-filters="sRGB">
<feFlood flood-opacity="0" result="BackgroundImageFix"/>
<feColorMatrix in="SourceAlpha" type="matrix" values="0 0 0 0 0 0 0 0 0 0 0 0 0 0 0 0 0 0 127 0" result="hardAlpha"/>
<feOffset dy="0.4"/>
<feComposite in2="hardAlpha" operator="out"/>
<feColorMatrix type="matrix" values="0 0 0 0 0.513726 0 0 0 0 0.568627 0 0 0 0 0.67451 0 0 0 0.2 0"/>
<feBlend mode="normal" in2="BackgroundImageFix" result="effect1_dropShadow_190_35"/>
<feBlend mode="normal" in="SourceGraphic" in2="effect1_dropShadow_190_35" result="shape"/>
<feColorMatrix in="SourceAlpha" type="matrix" values="0 0 0 0 0 0 0 0 0 0 0 0 0 0 0 0 0 0 127 0" result="hardAlpha"/>
<feOffset dx="1" dy="2"/>
<feGaussianBlur stdDeviation="1.75"/>
<feComposite in2="hardAlpha" operator="arithmetic" k2="-1" k3="1"/>
<feColorMatrix type="matrix" values="0 0 0 0 0.376607 0 0 0 0 0.424761 0 0 0 0 0.517628 0 0 0 0.5 0"/>
<feBlend mode="normal" in2="shape" result="effect2_innerShadow_190_35"/>
</filter>
</defs>
</svg>
